svg/cybersecurity_two_tone.svg

<svg xmlns="http://www.w3.org/2000/svg" width="24" height="24" viewBox="0 0 24 24"><title>cybersecurity_two_tone</title><g opacity=".5"><path d="M11.66 5.5V7h.7V5.5a.77.77 0 0 0 .4-.66.79.79 0 0 0-.76-.74.75.75 0 0 0-.75.74.79.79 0 0 0 .41.66zm.34-.94a.28.28 0 0 1 .28.28.28.28 0 1 1-.28-.28zM12.36 18.43v-2.05h-.7v2.05a.74.74 0 0 0-.4.63.76.76 0 0 0 .75.75.74.74 0 0 0 .75-.73.77.77 0 0 0-.4-.65zm-.35.91a.28.28 0 0 1-.28-.28.29.29 0 0 1 .28-.28.28.28 0 1 1 0 .56zM5.3 13.75a.75.75 0 1 0 0 1.49.77.77 0 0 0 .65-.4H8v-.7H6a.78.78 0 0 0-.7-.39zm0 1a.29.29 0 0 1-.3-.28.28.28 0 0 1 .28-.28.28.28 0 0 1 0 .56zM18.07 14.14H15v.7h3.05a.73.73 0 0 0 .65.4.75.75 0 1 0 0-1.49.74.74 0 0 0-.63.39zm.91.35a.28.28 0 0 1-.28.28.27.27 0 0 1-.28-.28.28.28 0 0 1 .28-.28.29.29 0 0 1 .3.28zM5.42 8.76a.72.72 0 0 0 1 0 .76.76 0 0 0 0-1 .74.74 0 0 0-.72-.19L3.92 5.73l-.49.49L5.23 8a.74.74 0 0 0 .19.76zM5.74 8a.28.28 0 0 1 .38 0 .28.28 0 0 1 0 .39.28.28 0 0 1-.38 0 .35.35 0 0 1 0-.39zM8 13.21v-.7H4.49l-2.43-2.42-.49.51 2.61 2.61H8zM9 15.71H4.16l-1.24 1.23.49.49 1.02-1.02H9v-.7z"/><path d="M9.19 16.68l-.49-.51-1.44 1.47H5.23v2.1h.7v-1.4h1.61l.81-.82v1.15l-1.84 1.84L7 21l2.05-2.06V17l.14-.32zM7.14 11.02V9.67h-.7v.65H5L2.55 7.88l-.49.49 2.66 2.65h2.42zM7.91 2.93l2.21 2.22v2.14h.7V4.87L8.4 2.44l-.49.49zM13.29 16.43v.7h3.52l2.31 2.3.49-.49-2.52-2.51h-3.8zM22.61 10.6l-.48-.51-2.43 2.42h-4.52v.7h4.8l2.63-2.61zM15.18 5.89a.73.73 0 0 0 .7-.93l1.44-1.44-.48-.52-1.45 1.45a.69.69 0 0 0-.72.19.75.75 0 0 0 0 1 .66.66 0 0 0 .51.25zM15 5a.3.3 0 0 1 .38 0 .28.28 0 0 1 0 .4.28.28 0 0 1-.38 0 .29.29 0 0 1 0-.4zM17.32 8.15a.76.76 0 0 0 0 1 .74.74 0 0 0 1 0 .76.76 0 0 0 .18-.72l2.24-2.24-.49-.49-2.2 2.3a.75.75 0 0 0-.73.15zm.74.71a.28.28 0 0 1-.4 0 .28.28 0 0 1 0-.38.29.29 0 0 1 .37 0 .26.26 0 0 1 .03.38z"/><path d="M17.09 10.55v1.4h.7v-.7h1.73L22.2 8.6l-.52-.49-2.44 2.44h-2.15zM15.65 17h-.7v1.95L16.97 21l.49-.49-1.81-1.84V17zM13.25 16h.7v2.57h-.7zM9.8 19.9l-.98.98.49.51 1.18-1.21v-1.14H9.8v.86zM13.48 19.74l.86.86v1h.7v-1.3l-1.07-1.05-.49.49zM13.64 2.4h.7v1.91h-.7zM18.99 16.324l.496-.495 1.117 1.118-.495.495zM14.427 8.506l3.953-3.953.495.495-3.953 3.953zM5.107 5.056l.495-.495 3.953 3.953-.495.494zM6.262 3.645l.495-.495 1.86 1.86-.496.495z"/></g><path d="M12 23a11 11 0 1 1 11-11 11 11 0 0 1-11 11zm0-20a9 9 0 1 0 9 9 9 9 0 0 0-9-9z"/><path d="M15 11V9a3 3 0 0 0-6 0v2a1 1 0 0 0-1 1v4a1 1 0 0 0 1 1h6a1 1 0 0 0 1-1v-4a1 1 0 0 0-1-1zm-4.5-2a1.5 1.5 0 0 1 3 0v2h-3z"/><path fill="none" d="M0 0h24v24H0z"/></svg>

<svg xmlns="http://www.w3.org/2000/svg" width="24" height="24" viewBox="0 0 24 24">
  <title>cybersecurity_two_tone</title>
  <g opacity="0.5">
    <path d="M11.66,5.5V7h.7V5.5a.77.77,0,0,0,.4-.66A.79.79,0,0,0,12,4.1a.75.75,0,0,0-.75.74A.79.79,0,0,0,11.66,5.5ZM12,4.56a.28.28,0,0,1,.28.28A.28.28,0,1,1,12,4.56Z"/>
    <path d="M12.36,18.43V16.38h-.7v2.05a.74.74,0,0,0-.4.63.76.76,0,0,0,.75.75.74.74,0,0,0,.75-.73v0A.77.77,0,0,0,12.36,18.43Zm-.35.91a.28.28,0,0,1-.28-.28.29.29,0,0,1,.28-.28.28.28,0,1,1,0,.56Z"/>
    <path d="M5.3,13.75a.75.75,0,1,0,0,1.49.77.77,0,0,0,.65-.4H8v-.7H6A.78.78,0,0,0,5.3,13.75Zm0,1A.29.29,0,0,1,5,14.47a.28.28,0,0,1,.28-.28.28.28,0,0,1,0,.56Z"/>
    <path d="M18.07,14.14H15v.7h3.05a.73.73,0,0,0,.65.4.75.75,0,1,0,0-1.49A.74.74,0,0,0,18.07,14.14Zm.91.35a.28.28,0,0,1-.28.28.27.27,0,0,1-.28-.28.28.28,0,0,1,.28-.28A.29.29,0,0,1,19,14.49Z"/>
    <path d="M5.42,8.76a.72.72,0,0,0,1,0,.76.76,0,0,0,0-1,.74.74,0,0,0-.72-.19L3.92,5.73l-.49.49L5.23,8A.74.74,0,0,0,5.42,8.76ZM5.74,8h0a.28.28,0,0,1,.38,0,.28.28,0,0,1,0,.39.28.28,0,0,1-.38,0A.35.35,0,0,1,5.74,8Z"/>
    <polygon points="8 13.21 8 12.51 4.49 12.51 2.06 10.09 1.57 10.6 4.18 13.21 8 13.21"/>
    <polygon points="9 15.71 4.16 15.71 2.92 16.94 3.41 17.43 4.43 16.41 9 16.41 9 15.71"/>
    <polygon points="9.19 16.68 8.7 16.17 7.26 17.64 5.23 17.64 5.23 19.74 5.93 19.74 5.93 18.34 7.54 18.34 8.35 17.52 8.35 18.67 6.51 20.51 7 21 9.05 18.94 9.05 17 9.19 16.68"/>
    <polygon points="7.14 11.02 7.14 9.67 6.44 9.67 6.44 10.32 5 10.32 2.55 7.88 2.06 8.37 4.72 11.02 7.14 11.02"/>
    <polygon points="7.91 2.93 10.12 5.15 10.12 7.29 10.82 7.29 10.82 4.87 8.4 2.44 7.91 2.93"/>
    <polygon points="13.29 16.43 13.29 17.13 16.81 17.13 19.12 19.43 19.61 18.94 17.09 16.43 13.29 16.43"/>
    <polygon points="22.61 10.6 22.13 10.09 19.7 12.51 15.18 12.51 15.18 13.21 19.98 13.21 22.61 10.6"/>
    <path d="M15.18,5.89a.73.73,0,0,0,.7-.93l1.44-1.44L16.84,3,15.39,4.45a.69.69,0,0,0-.72.19.75.75,0,0,0,0,1A.66.66,0,0,0,15.18,5.89ZM15,5a.3.3,0,0,1,.38,0,.28.28,0,0,1,0,.4.28.28,0,0,1-.38,0A.29.29,0,0,1,15,5Z"/>
    <path d="M17.32,8.15a.76.76,0,0,0,0,1,.74.74,0,0,0,1,0,.76.76,0,0,0,.18-.72l2.24-2.24-.49-.49L18.05,8A.75.75,0,0,0,17.32,8.15Zm.74.71v0a.28.28,0,0,1-.4,0,.28.28,0,0,1,0-.38.29.29,0,0,1,.37,0A.26.26,0,0,1,18.06,8.86Z"/>
    <polygon points="17.09 10.55 17.09 11.95 17.79 11.95 17.79 11.25 19.52 11.25 22.2 8.6 21.68 8.11 19.24 10.55 17.09 10.55"/>
    <polygon points="15.65 17 14.95 17 14.95 18.95 16.97 21 17.46 20.51 15.65 18.67 15.65 17"/>
    <rect x="13.25" y="16" width="0.7" height="2.57"/>
    <polygon points="9.8 19.9 8.82 20.88 9.31 21.39 10.49 20.18 10.49 19.04 9.8 19.04 9.8 19.9"/>
    <polygon points="13.48 19.74 14.34 20.6 14.34 21.6 15.04 21.6 15.04 20.3 13.97 19.25 13.48 19.74"/>
    <rect x="13.64" y="2.4" width="0.7" height="1.91"/>
    <rect x="19.45" y="15.85" width="0.7" height="1.58" transform="translate(-5.97 18.87) rotate(-45)"/>
    <rect x="13.86" y="6.43" width="5.59" height="0.7" transform="translate(0.08 13.76) rotate(-45)"/>
    <rect x="6.98" y="3.99" width="0.7" height="5.59" transform="translate(-2.65 7.17) rotate(-45)"/>
    <rect x="7.09" y="3.01" width="0.7" height="2.63" transform="translate(-0.88 6.53) rotate(-45)"/>
  </g>
  <path d="M12,23A11,11,0,1,1,23,12,11,11,0,0,1,12,23ZM12,3a9,9,0,1,0,9,9A9,9,0,0,0,12,3Z"/>
  <path d="M15,11V9A3,3,0,0,0,9,9v2a1,1,0,0,0-1,1v4a1,1,0,0,0,1,1h6a1,1,0,0,0,1-1V12A1,1,0,0,0,15,11ZM10.5,9a1.5,1.5,0,0,1,3,0v2h-3Z"/>
  <rect width="24" height="24" fill="none"/>
</svg>
